docs/reference/data-models/gcp/img/gcp_machine_type.svg

<svg xmlns="http://www.w3.org/2000/svg" xmlns:xlink="http://www.w3.org/1999/xlink" width="406" height="1291" preserveAspectRatio="none" style="width:406px;height:1291px;background:#00000000"><a xlink:actuate="onRequest" xlink:href="#a" xlink:show="new" xlink:title="#resource" xlink:type="simple" target="_top"><rect id="a" width="195" height="275.836" x="8.5" y="7" fill="#3D176E" rx="2.5" ry="2.5" style="stroke:#000d19;stroke-width:1.5"/><circle cx="61.25" cy="26.895" r="11" fill="#E98DF7" style="stroke:#000d19;stroke-width:1"/><path d="M64.219 32.535q-.578.297-1.219.438-.64.156-1.344.156-2.5 0-3.828-1.64-1.312-1.657-1.312-4.782t1.312-4.781q1.328-1.656 3.828-1.656.703 0 1.344.156.656.156 1.219.453v2.719q-.625-.578-1.219-.844-.594-.281-1.219-.281-1.343 0-2.031 1.078-.688 1.062-.688 3.156 0 2.094.688 3.172.688 1.062 2.031 1.062.625 0 1.219-.265.594-.281 1.219-.86v2.72Z"/><text x="86.75" y="32.78" fill="#D9B8FF" font-family="Helvetica" font-size="17" textLength="71">resource</text><path d="M9.5 46.789h193" style="stroke:#000d19;stroke-width:1.5"/><text x="19.5" y="65.999" fill="#D9B8FF" font-family="sans-serif" font-size="11" font-weight="bold" textLength="12">id</text><text x="31.5" y="65.999" fill="#D9B8FF" font-family="sans-serif" font-size="11" textLength="41">: string</text><text x="19.5" y="88.804" fill="#D9B8FF" font-family="sans-serif" font-size="11" font-weight="bold" textLength="28">tags</text><text x="47.5" y="88.804" fill="#D9B8FF" font-family="sans-serif" font-size="11" textLength="145">: dictionary[string, string]</text><text x="19.5" y="111.609" fill="#D9B8FF" font-family="sans-serif" font-size="11" font-weight="bold" textLength="35">name</text><text x="54.5" y="111.609" fill="#D9B8FF" font-family="sans-serif" font-size="11" textLength="41">: string</text><text x="19.5" y="134.414" fill="#D9B8FF" font-family="sans-serif" font-size="11" font-weight="bold" textLength="35">ctime</text><text x="54.5" y="134.414" fill="#D9B8FF" font-family="sans-serif" font-size="11" textLength="58">: datetime</text><text x="19.5" y="157.218" fill="#D9B8FF" font-family="sans-serif" font-size="11" font-weight="bold" textLength="24">age</text><text x="43.5" y="157.218" fill="#D9B8FF" font-family="sans-serif" font-size="11" textLength="55">: duration</text><text x="19.5" y="180.023" fill="#D9B8FF" font-family="sans-serif" font-size="11" font-weight="bold" textLength="39">mtime</text><text x="58.5" y="180.023" fill="#D9B8FF" font-family="sans-serif" font-size="11" textLength="58">: datetime</text><text x="19.5" y="202.828" fill="#D9B8FF" font-family="sans-serif" font-size="11" font-weight="bold" textLength="75">last_update</text><text x="94.5" y="202.828" fill="#D9B8FF" font-family="sans-serif" font-size="11" textLength="55">: duration</text><text x="19.5" y="225.632" fill="#D9B8FF" font-family="sans-serif" font-size="11" font-weight="bold" textLength="36">atime</text><text x="55.5" y="225.632" fill="#D9B8FF" font-family="sans-serif" font-size="11" textLength="58">: datetime</text><text x="19.5" y="248.437" fill="#D9B8FF" font-family="sans-serif" font-size="11" font-weight="bold" textLength="74">last_access</text><text x="93.5" y="248.437" fill="#D9B8FF" font-family="sans-serif" font-size="11" textLength="55">: duration</text><text x="19.5" y="271.242" fill="#D9B8FF" font-family="sans-serif" font-size="11" font-weight="bold" textLength="27">kind</text><text x="46.5" y="271.242" fill="#D9B8FF" font-family="sans-serif" font-size="11" textLength="41">: string</text></a><a xlink:actuate="onRequest" xlink:href="#b" xlink:show="new" xlink:title="#gcp_resource" xlink:type="simple" target="_top"><rect id="b" width="169" height="93.398" x="230.5" y="997.5" fill="#3D176E" rx="2.5" ry="2.5" style="stroke:#000d19;stroke-width:1.5"/><circle cx="254.05" cy="1017.394" r="11" fill="#E98DF7" style="stroke:#000d19;stroke-width:1"/><path d="M257.019 1023.035q-.578.297-1.219.438-.64.156-1.344.156-2.5 0-3.828-1.64-1.312-1.657-1.312-4.782t1.312-4.781q1.328-1.657 3.828-1.657.703 0 1.344.157.656.156 1.219.453v2.719q-.625-.578-1.219-.844-.594-.281-1.219-.281-1.343 0-2.031 1.078-.688 1.062-.688 3.156 0 2.094.688 3.172.688 1.062 2.031 1.062.625 0 1.219-.265.594-.282 1.219-.86v2.72Z"/><text x="274.95" y="1023.28" fill="#D9B8FF" font-family="Helvetica" font-size="17" textLength="108">gcp_resource</text><path d="M231.5 1037.289h167" style="stroke:#000d19;stroke-width:1.5"/><text x="241.5" y="1056.499" fill="#D9B8FF" font-family="sans-serif" font-size="11" font-weight="bold" textLength="23">link</text><text x="264.5" y="1056.499" fill="#D9B8FF" font-family="sans-serif" font-size="11" textLength="41">: string</text><text x="241.5" y="1079.304" fill="#D9B8FF" font-family="sans-serif" font-size="11" font-weight="bold" textLength="106">label_fingerprint</text><text x="347.5" y="1079.304" fill="#D9B8FF" font-family="sans-serif" font-size="11" textLength="41">: string</text></a><a xlink:actuate="onRequest" xlink:href="#c" xlink:show="new" xlink:title="#phantom_resource" xlink:type="simple" target="_top"><rect id="c" width="198" height="39.789" x="7" y="404" fill="#3D176E" rx="2.5" ry="2.5" style="stroke:#000d19;stroke-width:1.5"/><circle cx="22" cy="423.894" r="11" fill="#E98DF7" style="stroke:#000d19;stroke-width:1"/><path d="M24.969 429.535q-.578.297-1.219.438-.64.156-1.344.156-2.5 0-3.828-1.64-1.312-1.657-1.312-4.782t1.312-4.781q1.328-1.656 3.828-1.656.703 0 1.344.156.656.156 1.219.453v2.719q-.625-.579-1.219-.844-.594-.281-1.219-.281-1.343 0-2.031 1.078-.688 1.062-.688 3.156 0 2.094.688 3.172.688 1.062 2.031 1.062.625 0 1.219-.265.594-.281 1.219-.86v2.72Z"/><text x="41" y="429.78" fill="#D9B8FF" font-family="Helvetica" font-size="17" textLength="156">phantom_resource</text></a><a xlink:actuate="onRequest" xlink:href="#d" xlink:show="new" xlink:title="#gcp_machine_type" xlink:type="simple" target="_top"><rect id="d" width="197" height="39.789" x="146.5" y="1246" fill="#3D176E" rx="2.5" ry="2.5" style="stroke:#000d19;stroke-width:1.5"/><circle cx="161.5" cy="1265.895" r="11" fill="#E98DF7" style="stroke:#000d19;stroke-width:1"/><path d="M164.469 1271.535q-.578.297-1.219.438-.64.156-1.344.156-2.5 0-3.828-1.64-1.312-1.657-1.312-4.782t1.312-4.781q1.328-1.656 3.828-1.656.703 0 1.344.156.656.156 1.219.453v2.719q-.625-.578-1.219-.844-.594-.281-1.219-.281-1.344 0-2.031 1.078-.688 1.062-.688 3.156 0 2.094.688 3.172.688 1.062 2.031 1.062.625 0 1.219-.265.594-.281 1.219-.86v2.72Z"/><text x="180.5" y="1271.78" fill="#D9B8FF" font-family="Helvetica" font-size="17" textLength="155">gcp_machine_type</text></a><a xlink:actuate="onRequest" xlink:href="#e" xlink:show="new" xlink:title="#instance_type" xlink:type="simple" target="_top"><rect id="e" width="179" height="161.813" x="16.5" y="963" fill="#3D176E" rx="2.5" ry="2.5" style="stroke:#000d19;stroke-width:1.5"/><circle cx="40.95" cy="982.894" r="11" fill="#E98DF7" style="stroke:#000d19;stroke-width:1"/><path d="M43.919 988.535q-.578.297-1.219.438-.64.156-1.344.156-2.5 0-3.828-1.64-1.312-1.657-1.312-4.782t1.312-4.781q1.328-1.657 3.828-1.657.703 0 1.344.157.656.156 1.219.453v2.719q-.625-.578-1.219-.844-.594-.281-1.219-.281-1.343 0-2.031 1.078-.688 1.062-.688 3.156 0 2.094.688 3.172.688 1.062 2.031 1.062.625 0 1.219-.265.594-.282 1.219-.86v2.72Z"/><text x="62.05" y="988.78" fill="#D9B8FF" font-family="Helvetica" font-size="17" textLength="116">instance_type</text><path d="M17.5 1002.789h177" style="stroke:#000d19;stroke-width:1.5"/><text x="27.5" y="1022" fill="#D9B8FF" font-family="sans-serif" font-size="11" font-weight="bold" textLength="89">instance_type</text><text x="116.5" y="1022" fill="#D9B8FF" font-family="sans-serif" font-size="11" textLength="41">: string</text><text x="27.5" y="1044.804" fill="#D9B8FF" font-family="sans-serif" font-size="11" font-weight="bold" textLength="96">instance_cores</text><text x="123.5" y="1044.804" fill="#D9B8FF" font-family="sans-serif" font-size="11" textLength="46">: double</text><text x="27.5" y="1067.609" fill="#D9B8FF" font-family="sans-serif" font-size="11" font-weight="bold" textLength="111">instance_memory</text><text x="138.5" y="1067.609" fill="#D9B8FF" font-family="sans-serif" font-size="11" textLength="46">: double</text><text x="27.5" y="1090.414" fill="#D9B8FF" font-family="sans-serif" font-size="11" font-weight="bold" textLength="100">ondemand_cost</text><text x="127.5" y="1090.414" fill="#D9B8FF" font-family="sans-serif" font-size="11" textLength="46">: double</text><text x="27.5" y="1113.218" fill="#D9B8FF" font-family="sans-serif" font-size="11" font-weight="bold" textLength="80">reservations</text><text x="107.5" y="1113.218" fill="#D9B8FF" font-family="sans-serif" font-size="11" textLength="36">: int64</text></a><a xlink:actuate="onRequest" xlink:href="#f" xlink:show="new" xlink:title="#type" xlink:type="simple" target="_top"><rect id="f" width="79" height="39.789" x="66.5" y="802" fill="#3D176E" rx="2.5" ry="2.5" style="stroke:#000d19;stroke-width:1.5"/><circle cx="81.5" cy="821.894" r="11" fill="#E98DF7" style="stroke:#000d19;stroke-width:1"/><path d="M84.469 827.535q-.578.297-1.219.438-.64.156-1.344.156-2.5 0-3.828-1.64-1.312-1.657-1.312-4.782t1.312-4.781q1.328-1.657 3.828-1.657.703 0 1.344.157.656.156 1.219.453v2.719q-.625-.578-1.219-.844-.594-.281-1.219-.281-1.344 0-2.031 1.078-.688 1.062-.688 3.156 0 2.094.688 3.172.688 1.062 2.031 1.062.625 0 1.219-.265.594-.282 1.219-.86v2.72Z"/><text x="100.5" y="827.78" fill="#D9B8FF" font-family="Helvetica" font-size="17" textLength="37">type</text></a><a xlink:actuate="onRequest" xlink:href="#g" xlink:show="new" xlink:title="#quota" xlink:type="simple" target="_top"><rect id="g" width="134" height="116.203" x="39" y="565" fill="#3D176E" rx="2.5" ry="2.5" style="stroke:#000d19;stroke-width:1.5"/><circle cx="73.8" cy="584.894" r="11" fill="#E98DF7" style="stroke:#000d19;stroke-width:1"/><path d="M76.769 590.535q-.578.297-1.219.438-.64.156-1.344.156-2.5 0-3.828-1.64-1.312-1.657-1.312-4.782t1.312-4.781q1.328-1.657 3.828-1.657.703 0 1.344.157.656.156 1.219.453v2.719q-.625-.578-1.219-.844-.594-.281-1.219-.281-1.344 0-2.031 1.078-.688 1.062-.688 3.156 0 2.094.688 3.172.688 1.062 2.031 1.062.625 0 1.219-.265.594-.282 1.219-.86v2.72Z"/><text x="97.2" y="590.78" fill="#D9B8FF" font-family="Helvetica" font-size="17" textLength="48">quota</text><path d="M40 604.789h132" style="stroke:#000d19;stroke-width:1.5"/><text x="50" y="624" fill="#D9B8FF" font-family="sans-serif" font-size="11" font-weight="bold" textLength="37">quota</text><text x="87" y="624" fill="#D9B8FF" font-family="sans-serif" font-size="11" textLength="46">: double</text><text x="50" y="646.804" fill="#D9B8FF" font-family="sans-serif" font-size="11" font-weight="bold" textLength="39">usage</text><text x="89" y="646.804" fill="#D9B8FF" font-family="sans-serif" font-size="11" textLength="46">: double</text><text x="50" y="669.609" fill="#D9B8FF" font-family="sans-serif" font-size="11" font-weight="bold" textLength="71">quota_type</text><text x="121" y="669.609" fill="#D9B8FF" font-family="sans-serif" font-size="11" textLength="41">: string</text></a><path fill="none" d="M106 303.48v100.27m-7-100.47 7-20 7 20H99zm195.36 806.6c-14.77 46.42-33.67 105.81-43.23 135.86m36.63-138.22 12.74-16.94.6 21.19-13.34-4.25zm-120.39 34.62c24.62 38.97 50.62 80.12 65.42 103.53m-71.45-99.98-4.76-20.64 16.6 13.17-11.84 7.47zM106 862.38V962.9m-7-100.76 7-20 7 20H99zm7-160.87v100.44m-7-100.46 7-20 7 20H99zm7-236.97v100.58m-7-100.61 7-20 7 20H99z" style="stroke:#ffaf37;stroke-width:2"/></svg>

<svg xmlns="http://www.w3.org/2000/svg" xmlns:xlink="http://www.w3.org/1999/xlink" width="406" height="1291" preserveAspectRatio="none" style="width:406px;height:1291px;background:#00000000"><a xlink:actuate="onRequest" xlink:href="#a" xlink:show="new" xlink:title="#resource" xlink:type="simple" target="_top"><rect id="a" width="195" height="275.836" x="8.5" y="7" fill="#3D176E" rx="2.5" ry="2.5" style="stroke:#000d19;stroke-width:1.5"/><circle cx="61.25" cy="26.895" r="11" fill="#E98DF7" style="stroke:#000d19;stroke-width:1"/><path d="M64.219 32.535q-.578.297-1.219.438-.64.156-1.344.156-2.5 0-3.828-1.64-1.312-1.657-1.312-4.782t1.312-4.781q1.328-1.656 3.828-1.656.703 0 1.344.156.656.156 1.219.453v2.719q-.625-.578-1.219-.844-.594-.281-1.219-.281-1.343 0-2.031 1.078-.688 1.062-.688 3.156 0 2.094.688 3.172.688 1.062 2.031 1.062.625 0 1.219-.265.594-.281 1.219-.86v2.72Z"/><text x="86.75" y="32.78" fill="#D9B8FF" font-family="Helvetica" font-size="17" textLength="71">resource</text><path d="M9.5 46.789h193" style="stroke:#000d19;stroke-width:1.5"/><text x="19.5" y="65.999" fill="#D9B8FF" font-family="sans-serif" font-size="11" font-weight="bold" textLength="12">id</text><text x="31.5" y="65.999" fill="#D9B8FF" font-family="sans-serif" font-size="11" textLength="41">: string</text><text x="19.5" y="88.804" fill="#D9B8FF" font-family="sans-serif" font-size="11" font-weight="bold" textLength="28">tags</text><text x="47.5" y="88.804" fill="#D9B8FF" font-family="sans-serif" font-size="11" textLength="145">: dictionary[string, string]</text><text x="19.5" y="111.609" fill="#D9B8FF" font-family="sans-serif" font-size="11" font-weight="bold" textLength="35">name</text><text x="54.5" y="111.609" fill="#D9B8FF" font-family="sans-serif" font-size="11" textLength="41">: string</text><text x="19.5" y="134.414" fill="#D9B8FF" font-family="sans-serif" font-size="11" font-weight="bold" textLength="35">ctime</text><text x="54.5" y="134.414" fill="#D9B8FF" font-family="sans-serif" font-size="11" textLength="58">: datetime</text><text x="19.5" y="157.218" fill="#D9B8FF" font-family="sans-serif" font-size="11" font-weight="bold" textLength="24">age</text><text x="43.5" y="157.218" fill="#D9B8FF" font-family="sans-serif" font-size="11" textLength="55">: duration</text><text x="19.5" y="180.023" fill="#D9B8FF" font-family="sans-serif" font-size="11" font-weight="bold" textLength="39">mtime</text><text x="58.5" y="180.023" fill="#D9B8FF" font-family="sans-serif" font-size="11" textLength="58">: datetime</text><text x="19.5" y="202.828" fill="#D9B8FF" font-family="sans-serif" font-size="11" font-weight="bold" textLength="75">last_update</text><text x="94.5" y="202.828" fill="#D9B8FF" font-family="sans-serif" font-size="11" textLength="55">: duration</text><text x="19.5" y="225.632" fill="#D9B8FF" font-family="sans-serif" font-size="11" font-weight="bold" textLength="36">atime</text><text x="55.5" y="225.632" fill="#D9B8FF" font-family="sans-serif" font-size="11" textLength="58">: datetime</text><text x="19.5" y="248.437" fill="#D9B8FF" font-family="sans-serif" font-size="11" font-weight="bold" textLength="74">last_access</text><text x="93.5" y="248.437" fill="#D9B8FF" font-family="sans-serif" font-size="11" textLength="55">: duration</text><text x="19.5" y="271.242" fill="#D9B8FF" font-family="sans-serif" font-size="11" font-weight="bold" textLength="27">kind</text><text x="46.5" y="271.242" fill="#D9B8FF" font-family="sans-serif" font-size="11" textLength="41">: string</text></a><a xlink:actuate="onRequest" xlink:href="#b" xlink:show="new" xlink:title="#gcp_resource" xlink:type="simple" target="_top"><rect id="b" width="169" height="93.398" x="230.5" y="997.5" fill="#3D176E" rx="2.5" ry="2.5" style="stroke:#000d19;stroke-width:1.5"/><circle cx="254.05" cy="1017.394" r="11" fill="#E98DF7" style="stroke:#000d19;stroke-width:1"/><path d="M257.019 1023.035q-.578.297-1.219.438-.64.156-1.344.156-2.5 0-3.828-1.64-1.312-1.657-1.312-4.782t1.312-4.781q1.328-1.657 3.828-1.657.703 0 1.344.157.656.156 1.219.453v2.719q-.625-.578-1.219-.844-.594-.281-1.219-.281-1.343 0-2.031 1.078-.688 1.062-.688 3.156 0 2.094.688 3.172.688 1.062 2.031 1.062.625 0 1.219-.265.594-.282 1.219-.86v2.72Z"/><text x="274.95" y="1023.28" fill="#D9B8FF" font-family="Helvetica" font-size="17" textLength="108">gcp_resource</text><path d="M231.5 1037.289h167" style="stroke:#000d19;stroke-width:1.5"/><text x="241.5" y="1056.499" fill="#D9B8FF" font-family="sans-serif" font-size="11" font-weight="bold" textLength="23">link</text><text x="264.5" y="1056.499" fill="#D9B8FF" font-family="sans-serif" font-size="11" textLength="41">: string</text><text x="241.5" y="1079.304" fill="#D9B8FF" font-family="sans-serif" font-size="11" font-weight="bold" textLength="106">label_fingerprint</text><text x="347.5" y="1079.304" fill="#D9B8FF" font-family="sans-serif" font-size="11" textLength="41">: string</text></a><a xlink:actuate="onRequest" xlink:href="#c" xlink:show="new" xlink:title="#phantom_resource" xlink:type="simple" target="_top"><rect id="c" width="198" height="39.789" x="7" y="404" fill="#3D176E" rx="2.5" ry="2.5" style="stroke:#000d19;stroke-width:1.5"/><circle cx="22" cy="423.894" r="11" fill="#E98DF7" style="stroke:#000d19;stroke-width:1"/><path d="M24.969 429.535q-.578.297-1.219.438-.64.156-1.344.156-2.5 0-3.828-1.64-1.312-1.657-1.312-4.782t1.312-4.781q1.328-1.656 3.828-1.656.703 0 1.344.156.656.156 1.219.453v2.719q-.625-.579-1.219-.844-.594-.281-1.219-.281-1.343 0-2.031 1.078-.688 1.062-.688 3.156 0 2.094.688 3.172.688 1.062 2.031 1.062.625 0 1.219-.265.594-.281 1.219-.86v2.72Z"/><text x="41" y="429.78" fill="#D9B8FF" font-family="Helvetica" font-size="17" textLength="156">phantom_resource</text></a><a xlink:actuate="onRequest" xlink:href="#d" xlink:show="new" xlink:title="#gcp_machine_type" xlink:type="simple" target="_top"><rect id="d" width="197" height="39.789" x="146.5" y="1246" fill="#3D176E" rx="2.5" ry="2.5" style="stroke:#000d19;stroke-width:1.5"/><circle cx="161.5" cy="1265.895" r="11" fill="#E98DF7" style="stroke:#000d19;stroke-width:1"/><path d="M164.469 1271.535q-.578.297-1.219.438-.64.156-1.344.156-2.5 0-3.828-1.64-1.312-1.657-1.312-4.782t1.312-4.781q1.328-1.656 3.828-1.656.703 0 1.344.156.656.156 1.219.453v2.719q-.625-.578-1.219-.844-.594-.281-1.219-.281-1.344 0-2.031 1.078-.688 1.062-.688 3.156 0 2.094.688 3.172.688 1.062 2.031 1.062.625 0 1.219-.265.594-.281 1.219-.86v2.72Z"/><text x="180.5" y="1271.78" fill="#D9B8FF" font-family="Helvetica" font-size="17" textLength="155">gcp_machine_type</text></a><a xlink:actuate="onRequest" xlink:href="#e" xlink:show="new" xlink:title="#instance_type" xlink:type="simple" target="_top"><rect id="e" width="179" height="161.813" x="16.5" y="963" fill="#3D176E" rx="2.5" ry="2.5" style="stroke:#000d19;stroke-width:1.5"/><circle cx="40.95" cy="982.894" r="11" fill="#E98DF7" style="stroke:#000d19;stroke-width:1"/><path d="M43.919 988.535q-.578.297-1.219.438-.64.156-1.344.156-2.5 0-3.828-1.64-1.312-1.657-1.312-4.782t1.312-4.781q1.328-1.657 3.828-1.657.703 0 1.344.157.656.156 1.219.453v2.719q-.625-.578-1.219-.844-.594-.281-1.219-.281-1.343 0-2.031 1.078-.688 1.062-.688 3.156 0 2.094.688 3.172.688 1.062 2.031 1.062.625 0 1.219-.265.594-.282 1.219-.86v2.72Z"/><text x="62.05" y="988.78" fill="#D9B8FF" font-family="Helvetica" font-size="17" textLength="116">instance_type</text><path d="M17.5 1002.789h177" style="stroke:#000d19;stroke-width:1.5"/><text x="27.5" y="1022" fill="#D9B8FF" font-family="sans-serif" font-size="11" font-weight="bold" textLength="89">instance_type</text><text x="116.5" y="1022" fill="#D9B8FF" font-family="sans-serif" font-size="11" textLength="41">: string</text><text x="27.5" y="1044.804" fill="#D9B8FF" font-family="sans-serif" font-size="11" font-weight="bold" textLength="96">instance_cores</text><text x="123.5" y="1044.804" fill="#D9B8FF" font-family="sans-serif" font-size="11" textLength="46">: double</text><text x="27.5" y="1067.609" fill="#D9B8FF" font-family="sans-serif" font-size="11" font-weight="bold" textLength="111">instance_memory</text><text x="138.5" y="1067.609" fill="#D9B8FF" font-family="sans-serif" font-size="11" textLength="46">: double</text><text x="27.5" y="1090.414" fill="#D9B8FF" font-family="sans-serif" font-size="11" font-weight="bold" textLength="100">ondemand_cost</text><text x="127.5" y="1090.414" fill="#D9B8FF" font-family="sans-serif" font-size="11" textLength="46">: double</text><text x="27.5" y="1113.218" fill="#D9B8FF" font-family="sans-serif" font-size="11" font-weight="bold" textLength="80">reservations</text><text x="107.5" y="1113.218" fill="#D9B8FF" font-family="sans-serif" font-size="11" textLength="36">: int64</text></a><a xlink:actuate="onRequest" xlink:href="#f" xlink:show="new" xlink:title="#type" xlink:type="simple" target="_top"><rect id="f" width="79" height="39.789" x="66.5" y="802" fill="#3D176E" rx="2.5" ry="2.5" style="stroke:#000d19;stroke-width:1.5"/><circle cx="81.5" cy="821.894" r="11" fill="#E98DF7" style="stroke:#000d19;stroke-width:1"/><path d="M84.469 827.535q-.578.297-1.219.438-.64.156-1.344.156-2.5 0-3.828-1.64-1.312-1.657-1.312-4.782t1.312-4.781q1.328-1.657 3.828-1.657.703 0 1.344.157.656.156 1.219.453v2.719q-.625-.578-1.219-.844-.594-.281-1.219-.281-1.344 0-2.031 1.078-.688 1.062-.688 3.156 0 2.094.688 3.172.688 1.062 2.031 1.062.625 0 1.219-.265.594-.282 1.219-.86v2.72Z"/><text x="100.5" y="827.78" fill="#D9B8FF" font-family="Helvetica" font-size="17" textLength="37">type</text></a><a xlink:actuate="onRequest" xlink:href="#g" xlink:show="new" xlink:title="#quota" xlink:type="simple" target="_top"><rect id="g" width="134" height="116.203" x="39" y="565" fill="#3D176E" rx="2.5" ry="2.5" style="stroke:#000d19;stroke-width:1.5"/><circle cx="73.8" cy="584.894" r="11" fill="#E98DF7" style="stroke:#000d19;stroke-width:1"/><path d="M76.769 590.535q-.578.297-1.219.438-.64.156-1.344.156-2.5 0-3.828-1.64-1.312-1.657-1.312-4.782t1.312-4.781q1.328-1.657 3.828-1.657.703 0 1.344.157.656.156 1.219.453v2.719q-.625-.578-1.219-.844-.594-.281-1.219-.281-1.344 0-2.031 1.078-.688 1.062-.688 3.156 0 2.094.688 3.172.688 1.062 2.031 1.062.625 0 1.219-.265.594-.282 1.219-.86v2.72Z"/><text x="97.2" y="590.78" fill="#D9B8FF" font-family="Helvetica" font-size="17" textLength="48">quota</text><path d="M40 604.789h132" style="stroke:#000d19;stroke-width:1.5"/><text x="50" y="624" fill="#D9B8FF" font-family="sans-serif" font-size="11" font-weight="bold" textLength="37">quota</text><text x="87" y="624" fill="#D9B8FF" font-family="sans-serif" font-size="11" textLength="46">: double</text><text x="50" y="646.804" fill="#D9B8FF" font-family="sans-serif" font-size="11" font-weight="bold" textLength="39">usage</text><text x="89" y="646.804" fill="#D9B8FF" font-family="sans-serif" font-size="11" textLength="46">: double</text><text x="50" y="669.609" fill="#D9B8FF" font-family="sans-serif" font-size="11" font-weight="bold" textLength="71">quota_type</text><text x="121" y="669.609" fill="#D9B8FF" font-family="sans-serif" font-size="11" textLength="41">: string</text></a><path fill="none" d="M106 303.48v100.27M99 303.28l7-20 7 20H99zM294.36 1109.88c-14.77 46.42-33.67 105.81-43.23 135.86M287.76 1107.52l12.74-16.94.6 21.19-13.34-4.25zM167.37 1142.14c24.62 38.97 50.62 80.12 65.42 103.53M161.34 1145.69l-4.76-20.64 16.6 13.17-11.84 7.47zM106 862.38V962.9M99 862.14l7-20 7 20H99zM106 701.27v100.44M99 701.25l7-20 7 20H99zM106 464.28v100.58M99 464.25l7-20 7 20H99z" style="stroke:#ffaf37;stroke-width:2"/></svg>
